_site/images/features-page/circle-automated-blue.svg

<svg fill="none" height="42" viewBox="0 0 42 42" width="42" xmlns="http://www.w3.org/2000/svg"><circle cx="21" cy="21" fill="#3ad9cf" r="21"/><path clip-rule="evenodd" d="m24.9397 10.0288c1.9507-.0279 3.7394 1.0812 4.5816 2.8409 1.7055.5719 2.7426 2.2983 2.4465 4.0726-.2962 1.7743-1.8377 3.0704-3.6365 3.0574h-7.33c-1.6568 0-3-1.3432-3-3 .0045-.7401.2823-1.4524.78-2h-2.78c-.5522 0-1 .4477-1 1v4c0 .5523-.4477 1-1 1-.5522 0-1-.4477-1-1v-4c0-1.6569 1.3432-3 3-3h4.44c.7915-1.7831 2.5478-2.9429 4.4984-2.9709zm-3.9384 7.9709h7.33c.443 0 .8677-.176 1.1809-.4892s.4891-.7379.4891-1.1808c.016-.8193-.5716-1.5261-1.38-1.66-.3637-.0624-.6635-.3199-.78-.67-.4747-1.3958-1.8933-2.2397-3.3465-1.9909-1.4531.2488-2.5101 1.5166-2.4935 2.9909 0 .5523-.4477 1-1 1-.5522 0-1 .4477-1 1s.4478 1 1 1zm7.0001 4.0001c-.5523 0-1 .4477-1 1v3c0 .5522-.4478 1-1 1h-2.26c-.3912-1.0017-1.2031-1.7806-2.22-2.13-.93-1.9736-3.0322-3.1163-5.1942-2.8235-2.1619.2928-3.8844 1.9536-4.2558 4.1035-1.3989.4597-2.2573 1.8668-2.0261 3.321s1.4836 2.5257 2.9561 2.529h7.33c1.7668 0 3.2813-1.2622 3.6-3h2.07c1.6568 0 3-1.3432 3-3v-3c0-.5523-.4478-1-1-1zm-15.0001 7.9999h7.33c.443 0 .8677-.176 1.1809-.4892s.4891-.7379.4891-1.1808c.016-.8193-.5716-1.5261-1.38-1.66-.3637-.0624-.6635-.3199-.78-.67-.4747-1.3958-1.8933-2.2397-3.3465-1.9909-1.4531.2488-2.5101 1.5166-2.4935 2.9909 0 .5523-.4477 1-1 1-.5522 0-1 .4477-1 1s.4478 1 1 1z" fill="#fff" fill-rule="evenodd"/></svg>

<svg width="42" height="42" viewBox="0 0 42 42" fill="none" xmlns="http://www.w3.org/2000/svg">
<circle cx="21" cy="21" r="21" fill="#3AD9CF"/>
<path fill-rule="evenodd" clip-rule="evenodd" d="M24.9397 10.0288C26.8904 10.0009 28.6791 11.11 29.5213 12.8697C31.2268 13.4416 32.2639 15.168 31.9678 16.9423C31.6716 18.7166 30.1301 20.0127 28.3313 19.9997H21.0013C19.3445 19.9997 18.0013 18.6565 18.0013 16.9997C18.0058 16.2596 18.2836 15.5473 18.7813 14.9997H16.0013C15.4491 14.9997 15.0013 15.4474 15.0013 15.9997V19.9997C15.0013 20.552 14.5536 20.9997 14.0013 20.9997C13.4491 20.9997 13.0013 20.552 13.0013 19.9997V15.9997C13.0013 14.3428 14.3445 12.9997 16.0013 12.9997H20.4413C21.2328 11.2166 22.9891 10.0568 24.9397 10.0288ZM21.0013 17.9997H28.3313C28.7743 17.9997 29.199 17.8237 29.5122 17.5105C29.8254 17.1973 30.0013 16.7726 30.0013 16.3297C30.0173 15.5104 29.4297 14.8036 28.6213 14.6697C28.2576 14.6073 27.9578 14.3498 27.8413 13.9997C27.3666 12.6039 25.948 11.76 24.4948 12.0088C23.0417 12.2576 21.9847 13.5254 22.0013 14.9997C22.0013 15.552 21.5536 15.9997 21.0013 15.9997C20.4491 15.9997 20.0013 16.4474 20.0013 16.9997C20.0013 17.552 20.4491 17.9997 21.0013 17.9997ZM28.0014 21.9998C27.4491 21.9998 27.0014 22.4475 27.0014 22.9998V25.9998C27.0014 26.552 26.5536 26.9998 26.0014 26.9998H23.7414C23.3502 25.9981 22.5383 25.2192 21.5214 24.8698C20.5914 22.8962 18.4892 21.7535 16.3272 22.0463C14.1653 22.3391 12.4428 23.9999 12.0714 26.1498C10.6725 26.6095 9.8141 28.0166 10.0453 29.4708C10.2765 30.925 11.5289 31.9965 13.0014 31.9998H20.3314C22.0982 31.9998 23.6127 30.7376 23.9314 28.9998H26.0014C27.6582 28.9998 29.0014 27.6566 29.0014 25.9998V22.9998C29.0014 22.4475 28.5536 21.9998 28.0014 21.9998ZM13.0013 29.9997H20.3313C20.7743 29.9997 21.199 29.8237 21.5122 29.5105C21.8254 29.1973 22.0013 28.7726 22.0013 28.3297C22.0173 27.5104 21.4297 26.8036 20.6213 26.6697C20.2576 26.6073 19.9578 26.3498 19.8413 25.9997C19.3666 24.6039 17.948 23.76 16.4948 24.0088C15.0417 24.2576 13.9847 25.5254 14.0013 26.9997C14.0013 27.552 13.5536 27.9997 13.0013 27.9997C12.4491 27.9997 12.0013 28.4474 12.0013 28.9997C12.0013 29.552 12.4491 29.9997 13.0013 29.9997Z" fill="white"/>
</svg>
